X: 1
T: Polska #2 (vals) i Am
O: Sweden
Z: 2009 John Chambers <jc:trillian.mit.edu>
S: handwritten MS by JC from the 1970s
N: See also H\aargal\aaten
M: 3/4
L: 1/8
K: Am
|: "Am"(3ABA ^G2 A2 | "E7"(3BcB A2 B2 | "Am"c>d cB cd |1 "E7"e6 :|2 "E7"e4 ^f2 |]
|: "G"g>f d2 (3def | "C"e>d c2 c2 | "E7"e>d B2 B>d | "Am"cB A4 \
| "Dm"a>f d2 (3def | "Am"e>c A2 A2 | "E7"E2 E>^G B>G | "Am"A2 A4 :|
